public/images/lines-1.svg

<svg fill="none" height="1903" viewBox="0 0 1600 1903" width="1600" xmlns="http://www.w3.org/2000/svg"><g stroke="#007bff"><path d="m1170.82 529.829v.01l139.61 154.743c33.03 36.612 43.92 88.111 28.53 134.96l-65.02 198.008v.01l-64.21 198.27c-15.19 46.92-54.35 82.1-102.61 92.2l-203.993 42.69h-.013l-203.814 43.53c-48.222 10.3-98.266-6.02-131.146-42.77l-138.969-155.31-.009-.01-139.604-154.74c-33.031-36.61-43.919-88.114-28.535-134.963l65.021-198.007.005-.013 64.209-198.272c15.191-46.912 54.347-82.091 102.611-92.192l203.99-42.694.013-.003 203.814-43.529c48.222-10.299 98.266 6.021 131.15 42.768z" opacity=".04" stroke-width="6.58471"/><path d="m440.5 1209 128.933 142.9c31.484 34.9 80.346 53.99 126.067 43.1" opacity=".2" stroke-width="6.58471"/><g stroke-width="3.29235"><path d="m1329.38 387.374v.005l221.5 245.519c33.43 37.051 44.45 89.167 28.88 136.577l-103.17 314.165v.01l-101.88 314.58c-15.37 47.47-54.99 83.07-103.84 93.3l-323.653 67.73-.007.01-323.376 69.06c-48.8 10.42-99.443-6.09-132.717-43.28l-220.492-246.42-.004-.01-221.5006-245.52c-33.4259-37.05-44.44506-89.17-28.8767-136.575l103.1653-314.165.002-.006 101.876-314.585c15.373-47.473 54.998-83.074 103.84-93.296l323.657-67.738.006-.002 323.377-69.0651c48.803-10.4225 99.443 6.0931 132.713 43.2801z" opacity=".04"/><path d="m123.5 643 100.926-314.393c15.496-48.271 55.756-84.479 105.394-94.787l324.18-67.32" opacity=".2"/></g></g></svg>

<svg width="1600" height="1903" viewBox="0 0 1600 1903" fill="none" xmlns="http://www.w3.org/2000/svg">
<path opacity="0.04" d="M1170.82 529.829L1170.82 529.839L1310.43 684.582C1343.46 721.194 1354.35 772.693 1338.96 819.542L1273.94 1017.55L1273.94 1017.56L1209.73 1215.83C1194.54 1262.75 1155.38 1297.93 1107.12 1308.03L903.127 1350.72L903.114 1350.72L699.3 1394.25C651.078 1404.55 601.034 1388.23 568.154 1351.48L429.185 1196.17L429.176 1196.16L289.572 1041.42C256.541 1004.81 245.653 953.306 261.037 906.457L326.058 708.45L326.063 708.437L390.272 510.165C405.463 463.253 444.619 428.074 492.883 417.973L696.873 375.279L696.886 375.276L900.7 331.747C948.922 321.448 998.966 337.768 1031.85 374.515L1170.82 529.829Z" stroke="#007BFF" stroke-width="6.58471"/>
<path opacity="0.2" d="M440.5 1209L569.433 1351.9C600.917 1386.8 649.779 1405.89 695.5 1395V1395" stroke="#007BFF" stroke-width="6.58471"/>
<path opacity="0.04" d="M1329.38 387.374L1329.38 387.379L1550.88 632.898C1584.31 669.949 1595.33 722.065 1579.76 769.475L1476.59 1083.64L1476.59 1083.65L1374.71 1398.23C1359.34 1445.7 1319.72 1481.3 1270.87 1491.53L947.217 1559.26L947.21 1559.27L623.834 1628.33C575.034 1638.75 524.391 1622.24 491.117 1585.05L270.625 1338.63L270.621 1338.62L49.1204 1093.1C15.6945 1056.05 4.67534 1003.93 20.2437 956.525L123.409 642.36L123.411 642.354L225.287 327.769C240.66 280.296 280.285 244.695 329.127 234.473L652.784 166.735L652.79 166.733L976.167 97.6679C1024.97 87.2454 1075.61 103.761 1108.88 140.948L1329.38 387.374Z" stroke="#007BFF" stroke-width="3.29235"/>
<path opacity="0.2" d="M123.5 643L224.426 328.607C239.922 280.336 280.182 244.128 329.82 233.82L654 166.5" stroke="#007BFF" stroke-width="3.29235"/>
</svg>
